gilbertguide/assets/images/item_9615.svg

<?xml version="1.0" standalone="no"?><!DOCTYPE svg PUBLIC "-//W3C//DTD SVG 1.1//EN" "http://www.w3.org/Graphics/SVG/1.1/DTD/svg11.dtd"><svg xmlns="http://www.w3.org/2000/svg" version="1.1" width="195.5px" height="54px" viewBox="0 0 195.5 54"><desc>More</desc><defs/><g id="Polygon11103"><path d="m50.2 25.9c-.1-1.3-.1-2.9-.1-4.5c0 0-.1 0-.1 0c-.3 1.4-.8 3-1.2 4.2c.03.02-1.3 4.2-1.3 4.2l-1.9 0c0 0-1.14-4.14-1.1-4.1c-.4-1.3-.7-2.9-1-4.3c0 0 0 0 0 0c-.1 1.5-.2 3.2-.2 4.5c-.02 0-.2 4.1-.2 4.1l-2.3 0l.7-10.8l3.3 0c0 0 1.01 3.62 1 3.6c.4 1.3.7 2.6.9 3.9c0 0 .1 0 .1 0c.3-1.3.6-2.7 1-3.9c.01 0 1.1-3.6 1.1-3.6l3.2 0l.6 10.8l-2.3 0c0 0-.22-4.13-.2-4.1zm12.1.1c0 2.9-2 4.2-4.1 4.2c-2.3 0-4.1-1.5-4.1-4.1c0-2.5 1.7-4.1 4.2-4.1c2.4 0 4 1.6 4 4zm-5.7.1c0 1.3.6 2.3 1.6 2.3c1 0 1.6-.9 1.6-2.3c0-1.2-.5-2.4-1.6-2.4c-1.1 0-1.6 1.2-1.6 2.4zm7.2-1.3c0-1.2 0-2-.1-2.6c.03-.02 2.1 0 2.1 0l.1 1.4c0 0 .07.02.1 0c.4-1.1 1.3-1.6 2.1-1.6c.2 0 .3 0 .5 0c0 0 0 2.3 0 2.3c-.2 0-.4 0-.7 0c-.9 0-1.5.4-1.6 1.2c-.1.1-.1.3-.1.5c.02.03 0 4 0 4l-2.4 0c0 0-.01-5.25 0-5.2zm7.8 2.1c.1 1 1.1 1.5 2.2 1.5c.9 0 1.5-.2 2.2-.4c0 0 .3 1.7.3 1.7c-.8.3-1.8.5-2.8.5c-2.7 0-4.2-1.6-4.2-4c0-2 1.2-4.2 3.9-4.2c2.6 0 3.5 2 3.5 3.9c0 .4 0 .8 0 1c0 0-5.1 0-5.1 0zm2.9-1.7c0-.6-.3-1.6-1.4-1.6c-1 0-1.4 1-1.5 1.6c0 0 2.9 0 2.9 0zm3.7 3.5c0-.9.6-1.5 1.4-1.5c.9 0 1.4.6 1.5 1.5c0 .9-.6 1.5-1.5 1.5c-.8 0-1.4-.6-1.4-1.5zm5.3 0c0-.9.6-1.5 1.5-1.5c.8 0 1.4.6 1.4 1.5c0 .9-.6 1.5-1.5 1.5c-.8 0-1.4-.6-1.4-1.5zm5.4 0c0-.9.6-1.5 1.4-1.5c.9 0 1.4.6 1.4 1.5c0 .9-.5 1.5-1.4 1.5c-.8 0-1.4-.6-1.4-1.5z" stroke="none" fill="#fff"/></g></svg>

<?xml version="1.0" standalone="no"?><!DOCTYPE svg PUBLIC "-//W3C//DTD SVG 1.1//EN" "http://www.w3.org/Graphics/SVG/1.1/DTD/svg11.dtd"><svg xmlns="http://www.w3.org/2000/svg" version="1.1" width="219.4px" height="54px" viewBox="0 0 219.4 54">  <desc>More</desc>  <defs/>  <g id="Polygon10967">    <path d="M 50.2 25.9 C 50.1 24.6 50.1 23 50.1 21.4 C 50.1 21.4 50 21.4 50 21.4 C 49.7 22.8 49.2 24.4 48.8 25.6 C 48.83 25.62 47.5 29.8 47.5 29.8 L 45.6 29.8 C 45.6 29.8 44.46 25.66 44.5 25.7 C 44.1 24.4 43.8 22.8 43.5 21.4 C 43.5 21.4 43.5 21.4 43.5 21.4 C 43.4 22.9 43.3 24.6 43.3 25.9 C 43.28 25.9 43.1 30 43.1 30 L 40.8 30 L 41.5 19.2 L 44.8 19.2 C 44.8 19.2 45.81 22.82 45.8 22.8 C 46.2 24.1 46.5 25.4 46.7 26.7 C 46.7 26.7 46.8 26.7 46.8 26.7 C 47.1 25.4 47.4 24 47.8 22.8 C 47.81 22.8 48.9 19.2 48.9 19.2 L 52.1 19.2 L 52.7 30 L 50.4 30 C 50.4 30 50.18 25.87 50.2 25.9 Z M 62.3 26 C 62.3 28.9 60.3 30.2 58.2 30.2 C 55.9 30.2 54.1 28.7 54.1 26.1 C 54.1 23.6 55.8 22 58.3 22 C 60.7 22 62.3 23.6 62.3 26 Z M 56.6 26.1 C 56.6 27.4 57.2 28.4 58.2 28.4 C 59.2 28.4 59.8 27.5 59.8 26.1 C 59.8 24.9 59.3 23.7 58.2 23.7 C 57.1 23.7 56.6 24.9 56.6 26.1 Z M 63.8 24.8 C 63.8 23.6 63.8 22.8 63.7 22.2 C 63.73 22.18 65.8 22.2 65.8 22.2 L 65.9 23.6 C 65.9 23.6 65.97 23.62 66 23.6 C 66.4 22.5 67.3 22 68.1 22 C 68.3 22 68.4 22 68.6 22 C 68.6 22 68.6 24.3 68.6 24.3 C 68.4 24.3 68.2 24.3 67.9 24.3 C 67 24.3 66.4 24.7 66.3 25.5 C 66.2 25.6 66.2 25.8 66.2 26 C 66.22 26.03 66.2 30 66.2 30 L 63.8 30 C 63.8 30 63.79 24.75 63.8 24.8 Z M 71.6 26.9 C 71.7 27.9 72.7 28.4 73.8 28.4 C 74.7 28.4 75.3 28.2 76 28 C 76 28 76.3 29.7 76.3 29.7 C 75.5 30 74.5 30.2 73.5 30.2 C 70.8 30.2 69.3 28.6 69.3 26.2 C 69.3 24.2 70.5 22 73.2 22 C 75.8 22 76.7 24 76.7 25.9 C 76.7 26.3 76.7 26.7 76.7 26.9 C 76.7 26.9 71.6 26.9 71.6 26.9 Z M 74.5 25.2 C 74.5 24.6 74.2 23.6 73.1 23.6 C 72.1 23.6 71.7 24.6 71.6 25.2 C 71.6 25.2 74.5 25.2 74.5 25.2 Z M 78.2 28.7 C 78.2 27.8 78.8 27.2 79.6 27.2 C 80.5 27.2 81 27.8 81.1 28.7 C 81.1 29.6 80.5 30.2 79.6 30.2 C 78.8 30.2 78.2 29.6 78.2 28.7 Z M 83.5 28.7 C 83.5 27.8 84.1 27.2 85 27.2 C 85.8 27.2 86.4 27.8 86.4 28.7 C 86.4 29.6 85.8 30.2 84.9 30.2 C 84.1 30.2 83.5 29.6 83.5 28.7 Z M 88.9 28.7 C 88.9 27.8 89.5 27.2 90.3 27.2 C 91.2 27.2 91.7 27.8 91.7 28.7 C 91.7 29.6 91.2 30.2 90.3 30.2 C 89.5 30.2 88.9 29.6 88.9 28.7 Z " stroke="none" fill="#fff"/>  </g></svg>
